svg/fluentui-system-icons/ic_fluent_cloud_28_regular.svg

<svg width="28" height="28" viewBox="0 0 28 28" fill="none" xmlns="http://www.w3.org/2000/svg">
<path d="M7.51894 12C7.77426 8.64378 10.5784 6 14 6C17.4216 6 20.2257 8.64378 20.4811 12H20.75C23.3734 12 25.5 14.1266 25.5 16.75C25.5 19.3734 23.3734 21.5 20.75 21.5H7.25C4.62665 21.5 2.5 19.3734 2.5 16.75C2.5 14.1266 4.62665 12 7.25 12H7.51894ZM14 7.5C11.2386 7.5 9 9.73858 9 12.5V12.75C9 13.1642 8.66421 13.5 8.25 13.5H7.25C5.45507 13.5 4 14.9551 4 16.75C4 18.5449 5.45507 20 7.25 20H20.75C22.5449 20 24 18.5449 24 16.75C24 14.9551 22.5449 13.5 20.75 13.5H19.75C19.3358 13.5 19 13.1642 19 12.75V12.5C19 9.73858 16.7614 7.5 14 7.5Z" fill="#212121"/>
</svg>

<svg xmlns="http://www.w3.org/2000/svg" width="28" height="28"><path d="M7.519 12a6.5 6.5 0 0 1 12.962 0h.269a4.75 4.75 0 1 1 0 9.5H7.25a4.75 4.75 0 1 1 0-9.5h.269ZM14 7.5a5 5 0 0 0-5 5v.25a.75.75 0 0 1-.75.75h-1a3.25 3.25 0 0 0 0 6.5h13.5a3.25 3.25 0 0 0 0-6.5h-1a.75.75 0 0 1-.75-.75v-.25a5 5 0 0 0-5-5Z"/></svg>
